front/assets/images/nis2.svg

<svg width="428" height="175" viewBox="0 0 428 175" fill="none" xmlns="http://www.w3.org/2000/svg">
<path d="M75.2131 111.125L27.6524 33.9958H0V140.697H21.5753V63.5676L69.1361 140.697H96.7887V33.9958H75.2131V111.125Z" fill="white"/>
<path d="M145.86 33.9958H124.284V140.697H145.86V33.9958Z" fill="white"/>
<path d="M202.836 49.8485C210.888 49.8485 217.88 55.1853 224.108 63.2632L239.91 48.9364C230.792 38.1165 218.637 30.9502 202.684 30.9502C182.327 30.9502 168.349 44.9733 168.349 61.8952C168.349 98.0198 216.668 92.6883 216.668 112.352C216.668 119.975 211.5 124.546 202.993 124.546C194.486 124.546 185.823 119.671 179.442 111.435L163.793 125.914C173.214 137.195 185.217 143.748 203.144 143.748C222.745 143.748 238.243 131.707 238.546 111.587C238.546 75.0062 190.227 80.4899 190.227 61.1299C190.227 54.7293 195.238 49.8485 202.836 49.8485Z" fill="white"/>
<path d="M360.817 96.3589C367.912 89.4425 374.476 81.6358 374.476 71.3696C374.476 58.7526 364.438 49.5994 350.611 49.5994C338.555 49.5994 329.047 55.137 322.359 66.0544L321.185 67.9709L335.844 76.9288L336.997 74.9851C340.828 68.5465 344.399 65.919 349.334 65.919C353.783 65.919 356.44 68.4704 356.44 72.7539C356.44 77.2978 353.875 80.4144 348.458 85.9519L324.193 109.888V125.1H376.245V108.585H348.188L360.817 96.3643V96.3589Z" fill="white"/>
<path d="M348.722 7.60057C351.336 7.60057 353.923 8.29003 356.195 9.5876L412.826 42.0149C417.513 44.6968 420.429 49.7295 420.429 55.1477V119.546C420.429 124.964 417.518 129.992 412.826 132.679L356.195 165.106C353.923 166.409 351.342 167.093 348.722 167.093C346.103 167.093 343.522 166.403 341.25 165.106L284.619 132.679C279.932 129.997 277.016 124.964 277.016 119.546V55.1477C277.016 49.7295 279.927 44.7022 284.619 42.0149L341.25 9.5876C343.522 8.28465 346.103 7.60057 348.722 7.60057ZM348.722 0C344.848 0 340.973 0.993503 337.499 2.98594L280.869 35.4132C273.807 39.4579 269.445 46.9878 269.445 55.1477V119.546C269.445 127.706 273.807 135.236 280.869 139.281L337.499 171.708C340.979 173.7 344.853 174.694 348.722 174.694C352.592 174.694 356.472 173.7 359.946 171.708L416.576 139.281C423.638 135.236 428 127.706 428 119.546V55.1477C428 46.9878 423.638 39.4579 416.576 35.4132L359.946 2.98594C356.466 0.993503 352.592 0 348.722 0Z" fill="#FDC82E"/>
</svg>

<svg xmlns="http://www.w3.org/2000/svg" width="428" height="175" fill="none"><path fill="#fff" d="m75.213 111.125-47.56-77.13H0v106.702h21.575v-77.13l47.561 77.13H96.79V33.996H75.213zm70.647-77.129h-21.576v106.701h21.576zm56.976 15.853c8.052 0 15.044 5.336 21.272 13.414l15.802-14.327c-9.118-10.82-21.273-17.986-37.226-17.986-20.357 0-34.335 14.023-34.335 30.945 0 36.125 48.319 30.793 48.319 50.457 0 7.623-5.168 12.194-13.675 12.194s-17.17-4.875-23.551-13.111l-15.649 14.479c9.421 11.281 21.424 17.834 39.351 17.834 19.601 0 35.099-12.041 35.402-32.161 0-36.58-48.319-31.097-48.319-50.457 0-6.4 5.011-11.282 12.609-11.282m157.981 46.511c7.095-6.916 13.659-14.723 13.659-24.99 0-12.616-10.038-21.77-23.865-21.77-12.056 0-21.564 5.538-28.252 16.455l-1.174 1.917 14.659 8.958 1.153-1.944c3.831-6.439 7.402-9.066 12.337-9.066 4.449 0 7.106 2.551 7.106 6.835 0 4.544-2.565 7.66-7.982 13.198l-24.265 23.936V125.1h52.052v-16.515h-28.057l12.629-12.22z"/><path fill="#FDC82E" d="M348.722 7.6c2.614 0 5.201.69 7.473 1.988l56.631 32.427c4.687 2.682 7.603 7.715 7.603 13.133v64.398a15.16 15.16 0 0 1-7.603 13.133l-56.631 32.427a15.03 15.03 0 0 1-7.473 1.987c-2.619 0-5.2-.69-7.472-1.987l-56.631-32.427c-4.687-2.682-7.603-7.715-7.603-13.133V55.148a15.16 15.16 0 0 1 7.603-13.133L341.25 9.588a15.03 15.03 0 0 1 7.472-1.987m0-7.6c-3.874 0-7.749.994-11.223 2.986l-56.63 32.427a22.74 22.74 0 0 0-11.424 19.735v64.398c0 8.16 4.362 15.69 11.424 19.735l56.63 32.427a22.58 22.58 0 0 0 22.447 0l56.63-32.427A22.74 22.74 0 0 0 428 119.546V55.148c0-8.16-4.362-15.69-11.424-19.735l-56.63-32.427A22.6 22.6 0 0 0 348.722 0"/></svg>
